!!!OTL: Weinfuhrmann (2-40) S. 129
!!!id: P0913
**kern
*clefG2
*k[f#]
*G:
{8d
=1
4d
8g
=2
8.a
16cc
16b
16a
=3
8g
8g
8a
=4
4g}
=5
{8d
=6
4d
8g
=7
8.a
16cc
16b
16a
=8
4g
8a
=9
4g}
8r
=10
{4.a
=11
8g
8d
8g
=12
4a
16b
16a
=13
8g
8f#
8g
=14
4a}
8r
=15
{4dd
16cc
16b
=16
16a
16a
8b
16a
16g
=17
4.f#
=18
4g}
==
*-
!!!minrhy: 16
!!!meters: 3/8 ]  ZZ[4
!!!cut: Weinfuhrmann (2-40) S. 129
!!!reg: Lothringen
!!!trd: PINCK, Louis: Verklingende Weisen, Bd 2, Metz 1928
!!!rhy1: X_  X__X_  X_.XXX  X_X_X_  X__
!!!rhy2: X_  X__X_  X_.XXX  X__X_  X__0_
!!!key: P0913  16  G 3/8 ]  ZZ[4
!!!mod: SECHSTONSKALA DUR ?]  AMBITUS[8
!!!kad: 1121
!!!akz: -5211_-5211_21212_52-71_
!!!fot: 'a__av_b__c__
!!!for: 'a__b__c__d__
!!!fok: '^a_^a_W__\__
!! PHRAS[GEMISCHTTAKTIG]
!!!fkt: ???, Untreue
!! LOTH VKL
!! PR[9] 2K[16] 2G[24] 3K[9] 3G[2] 4A[9] 4Ü[0] 5A[0] 6K[0] 6G[0]
!! 7K[0] 7G[0] 8A[0] MEHR[0] SI[60] ABS[45] SR[40] SP[20]
!! ST[12] 2k[4] 2g[7] 3k[16] 3g[0] 4d[0] 4ü[0] 5d[2] 6k[0] 6g[0]
!! 7k[0] 7g[0] 8d[2] mehr[0] si[31] dm[+29] sr[11] sp[20]
!! 1F[19] 2F[67] 3F[4] 4F[0] LF[0] 2P[10] 3P[0] 4P[0] TRI[0] DF[4] AB[48]
!! TF[0] U3K[0] U3[0] U4[0] U4Ü[0] U5[4] U6K[0] U6[0] U7K[0] U7[0]
!! N1[4] N2K[0] N2[11] N3K[0] N3[20] N4[17] N4Ü[0] N5[17] N6K[0] N6[11]
!!!n7k: 0] N7[4] O1[9] O2K[0] O2[2] O3K[0] O3[0] HÖ[0
